X:1
T:Title
L:1/8
M:4/4
I:linebreak $
K:C
V:1 treble 
V:1
 E2 z E FEEE | EDD C D z z D | C2 D2 E2 z2 | E2 z E FEEE | EDD C D z z D | C2 B,2 C2 z C | %6
 GGGE E2 D2 | DDDD E2 DC | GGGE E2 D2 | DDDD E2 DD | CDCD E2 EE | EDDB, D2 CC | CDCD E2 EE | %13
 EDDB, D2 C | E2 z E FEEE | EDD C D z z D | C2 D2 E2 z2 | E2 z E FEEE | EDD C D z z D | %19
 C2 B,2 C2 z C | GGGE E z z E | EFED D z2 C | GGGE E z z E | EFED D z2 | CDCD E2 z | EDDB, D2 CC | %26
 CDCD E2 EE | EDDB, D2 C | E2 z E FEEE | EDD C D z z D | C2 D2 E2 z2 | E2 z E FEEE | %32
 EDD C D z z D | C2 B,2 C2 z C | GGGE E2 DD | DDDD E2 D2 | GGGE E2 DD | DDDD E2 DD | CDCD E2 EE | %39
 EDDB, D2 CC | CDCD E2 EE | EDDB, D2 C | E2 z E FEEE | EDD C D z z D | C2 D2 E2 z2 | E2 z E FEEE |] %46

